X:3
T: WER LIEBEN WILL MUSS LEIDEN
N: E0617
O: Europa, Mitteleuropa, Deutschland, Taunus
R: Liebes - Lied
M: 6/8
L: 1/16
K: C
G,2 | C4E,2A,4G,2 | G,2F,2z6
B,C | D4F,2A,4G,2 | E,4z6
G,2 | E4D2C4B,2 | B,2A,2z6
A,2 | G,4C2B,2A,2B,2 | C4z6

